Sweet-Rainbow/icons/preferences-system-time.svg

<?xml version="1.0" encoding="UTF-8" standalone="no"?>
<!-- Generator: Gravit.io -->

<svg
   xmlns:dc="http://purl.org/dc/elements/1.1/"
   xmlns:cc="http://creativecommons.org/ns#"
   xmlns:rdf="http://www.w3.org/1999/02/22-rdf-syntax-ns#"
   xmlns:svg="http://www.w3.org/2000/svg"
   xmlns="http://www.w3.org/2000/svg"
   xmlns:sodipodi="http://sodipodi.sourceforge.net/DTD/sodipodi-0.dtd"
   xmlns:inkscape="http://www.inkscape.org/namespaces/inkscape"
   style="isolation:isolate"
   viewBox="0 0 36 36"
   width="48"
   height="48"
   version="1.1"
   id="svg11"
   sodipodi:docname="preferences-system-time.svg"
   inkscape:version="0.92.4 (5da689c313, 2019-01-14)">
  <metadata
     id="metadata17">
    <rdf:RDF>
      <cc:Work
         rdf:about="">
        <dc:format>image/svg+xml</dc:format>
        <dc:type
           rdf:resource="http://purl.org/dc/dcmitype/StillImage" />
        <dc:title></dc:title>
      </cc:Work>
    </rdf:RDF>
  </metadata>
  <defs
     id="defs15" />
  <sodipodi:namedview
     pagecolor="#ffffff"
     bordercolor="#666666"
     borderopacity="1"
     objecttolerance="10"
     gridtolerance="10"
     guidetolerance="10"
     inkscape:pageopacity="0"
     inkscape:pageshadow="2"
     inkscape:window-width="640"
     inkscape:window-height="480"
     id="namedview13"
     showgrid="false"
     inkscape:zoom="2.7529914"
     inkscape:cx="270.13805"
     inkscape:cy="341.33333"
     inkscape:current-layer="svg11" />
  <linearGradient
     id="_lgradient_1"
     x1="0"
     y1="0.5"
     x2="1"
     y2="0.5"
     gradientTransform="scale(512)"
     gradientUnits="userSpaceOnUse">
    <stop
       offset="2.1739130434782608%"
       stop-opacity="1"
       style="stop-color:rgb(89,193,115)"
       id="stop2" />
    <stop
       offset="47.391304347826086%"
       stop-opacity="1"
       style="stop-color:rgb(161,127,224)"
       id="stop4" />
    <stop
       offset="98.69565217391305%"
       stop-opacity="1"
       style="stop-color:rgb(93,38,193)"
       id="stop6" />
  </linearGradient>
  <g
     id="g825"
     transform="scale(0.0703125)">
    <path
       id="path9"
       d="m 260.417,222.131 56.44,-56.44 c 7.581,-7.582 19.871,-7.582 27.453,0 7.582,7.581 7.582,19.871 0,27.453 v 0 l -56.441,56.441 c 0.082,0.907 0.124,1.826 0.124,2.754 0,16.725 -13.607,30.332 -30.332,30.332 -3.908,0 -7.645,-0.743 -11.079,-2.095 l -92.728,92.729 c -2.368,2.369 -5.474,3.554 -8.579,3.554 -3.105,0 -6.209,-1.186 -8.579,-3.554 -4.738,-4.739 -4.738,-12.421 0,-17.159 l 92.728,-92.728 c -1.352,-3.433 -2.095,-7.171 -2.095,-11.079 0,-0.928 0.042,-1.847 0.124,-2.754 l -82.179,-82.179 c -7.582,-7.581 -7.582,-19.871 0,-27.453 7.581,-7.582 19.871,-7.582 27.453,0 l 82.178,82.178 c 0.908,-0.082 1.827,-0.124 2.756,-0.124 0.929,0 1.848,0.042 2.756,0.124 z M 116.922,264.472 H 98.723 c -6.701,0 -12.133,-5.433 -12.133,-12.133 0,-6.7 5.432,-12.133 12.133,-12.133 h 18.199 c 6.701,0 12.133,5.433 12.133,12.133 0,6.7 -5.432,12.133 -12.133,12.133 z m 140.739,-140.74 c -6.701,0 -12.133,-5.433 -12.133,-12.133 V 93.401 c 0,-6.7 5.432,-12.133 12.133,-12.133 6.701,0 12.133,5.433 12.133,12.133 V 111.6 c 0,6.699 -5.432,12.132 -12.133,12.132 z m 158.938,140.74 H 398.4 c -6.701,0 -12.133,-5.433 -12.133,-12.133 0,-6.7 5.432,-12.133 12.133,-12.133 h 18.199 c 6.701,0 12.133,5.433 12.133,12.133 0,6.7 -5.432,12.133 -12.133,12.133 z M 257.661,423.41 c -6.701,0 -12.133,-5.433 -12.133,-12.133 v -18.199 c 0,-6.7 5.432,-12.133 12.133,-12.133 6.701,0 12.133,5.433 12.133,12.133 v 18.199 c 0,6.7 -5.432,12.133 -12.133,12.133 z M 256,48.531 c 114.582,0 207.469,92.887 207.469,207.469 0,114.582 -92.887,207.469 -207.469,207.469 C 141.418,463.469 48.531,370.582 48.531,256 48.531,141.418 141.418,48.531 256,48.531 Z M 256,0 C 114.615,0 0,114.615 0,256 0,397.385 114.615,512 256,512 397.385,512 512,397.385 512,256 512,114.615 397.385,0 256,0 Z"
       style="fill:url(#_lgradient_1);fill-rule:evenodd"
       inkscape:connector-curvature="0" />
  </g>
</svg>

<?xml version="1.0" encoding="UTF-8" standalone="no"?><!-- Generator: Gravit.io --><svg xmlns="http://www.w3.org/2000/svg" xmlns:xlink="http://www.w3.org/1999/xlink" style="isolation:isolate" viewBox="0 0 512 512" width="512pt" height="512pt"><linearGradient id="_lgradient_1" x1="0" y1="0.5" x2="1" y2="0.5" gradientTransform="matrix(512,0,0,512,0,0)" gradientUnits="userSpaceOnUse"><stop offset="2.1739130434782608%" stop-opacity="1" style="stop-color:rgb(89,193,115)"/><stop offset="47.391304347826086%" stop-opacity="1" style="stop-color:rgb(161,127,224)"/><stop offset="98.69565217391305%" stop-opacity="1" style="stop-color:rgb(93,38,193)"/></linearGradient><path d=" M 260.417 222.131 L 316.857 165.691 C 324.438 158.109 336.728 158.109 344.31 165.691 C 351.892 173.272 351.892 185.562 344.31 193.144 L 344.31 193.144 L 287.869 249.585 C 287.951 250.492 287.993 251.411 287.993 252.339 C 287.993 269.064 274.386 282.671 257.661 282.671 C 253.753 282.671 250.016 281.928 246.582 280.576 L 153.854 373.305 C 151.486 375.674 148.38 376.859 145.275 376.859 C 142.17 376.859 139.066 375.673 136.696 373.305 C 131.958 368.566 131.958 360.884 136.696 356.146 L 229.424 263.418 C 228.072 259.985 227.329 256.247 227.329 252.339 C 227.329 251.411 227.371 250.492 227.453 249.585 L 145.274 167.406 C 137.692 159.825 137.692 147.535 145.274 139.953 C 152.855 132.371 165.145 132.371 172.727 139.953 L 254.905 222.131 C 255.813 222.049 256.732 222.007 257.661 222.007 C 258.59 222.007 259.509 222.049 260.417 222.131 L 260.417 222.131 L 260.417 222.131 L 260.417 222.131 L 260.417 222.131 Z  M 116.922 264.472 L 98.723 264.472 C 92.022 264.472 86.59 259.039 86.59 252.339 C 86.59 245.639 92.022 240.206 98.723 240.206 L 116.922 240.206 C 123.623 240.206 129.055 245.639 129.055 252.339 C 129.055 259.039 123.623 264.472 116.922 264.472 L 116.922 264.472 L 116.922 264.472 L 116.922 264.472 L 116.922 264.472 Z  M 257.661 123.732 C 250.96 123.732 245.528 118.299 245.528 111.599 L 245.528 93.401 C 245.528 86.701 250.96 81.268 257.661 81.268 C 264.362 81.268 269.794 86.701 269.794 93.401 L 269.794 111.6 C 269.794 118.299 264.362 123.732 257.661 123.732 L 257.661 123.732 L 257.661 123.732 L 257.661 123.732 L 257.661 123.732 Z  M 416.599 264.472 L 398.4 264.472 C 391.699 264.472 386.267 259.039 386.267 252.339 C 386.267 245.639 391.699 240.206 398.4 240.206 L 416.599 240.206 C 423.3 240.206 428.732 245.639 428.732 252.339 C 428.732 259.039 423.3 264.472 416.599 264.472 L 416.599 264.472 L 416.599 264.472 Z  M 257.661 423.41 C 250.96 423.41 245.528 417.977 245.528 411.277 L 245.528 393.078 C 245.528 386.378 250.96 380.945 257.661 380.945 C 264.362 380.945 269.794 386.378 269.794 393.078 L 269.794 411.277 C 269.794 417.977 264.362 423.41 257.661 423.41 L 257.661 423.41 L 257.661 423.41 Z  M 256 48.531 C 370.582 48.531 463.469 141.418 463.469 256 C 463.469 370.582 370.582 463.469 256 463.469 C 141.418 463.469 48.531 370.582 48.531 256 C 48.531 141.418 141.418 48.531 256 48.531 L 256 48.531 L 256 48.531 Z  M 256 0 C 114.615 0 0 114.615 0 256 C 0 397.385 114.615 512 256 512 C 397.385 512 512 397.385 512 256 C 512 114.615 397.385 0 256 0 L 256 0 L 256 0 Z " fill-rule="evenodd" fill="url(#_lgradient_1)"/></svg>
